website/public/Images/logos/slack_full.svg

<svg width="172" height="44" viewBox="0 0 172 44" fill="none" xmlns="http://www.w3.org/2000/svg">
<g clip-path="url(#clip0)">
<path d="M54.957 34.4839L57.1027 29.4628C59.4213 31.2062 62.5012 32.113 65.5468 32.113C67.7962 32.113 69.2152 31.2411 69.2152 29.9164C69.1806 26.2204 55.7529 29.1142 55.6491 19.8393C55.6145 15.1324 59.7677 11.5061 65.6506 11.5061C69.146 11.5061 72.6414 12.3776 75.1331 14.3651L73.1259 19.4907C70.8418 18.0262 68.0042 16.9804 65.3046 16.9804C63.4704 16.9804 62.2593 17.8519 62.2593 18.9678C62.2939 22.5941 75.8255 20.6066 75.9639 29.4628C75.9639 34.2747 71.9148 37.657 66.1007 37.657C61.8437 37.657 57.9331 36.6456 54.957 34.4839ZM137.289 27.6497L143.206 30.9622C140.992 34.972 136.77 37.657 131.89 37.657C124.726 37.657 118.912 31.7992 118.912 24.5815C118.912 17.3638 124.726 11.5061 131.89 11.5061C136.735 11.5061 140.992 14.2256 143.206 18.2008L137.289 21.513C136.216 19.6302 134.208 18.3403 131.89 18.3403C128.464 18.3403 125.695 21.1296 125.695 24.5815C125.695 28.0335 128.464 30.8228 131.89 30.8228C134.208 30.8228 136.216 29.5325 137.288 27.6497H137.289ZM78.9399 0.662109H86.346V37.1686H78.9399V0.662109ZM146.113 0.662109H153.519V22.1057L161.894 12.029H170.962L160.614 24.1628L171.792 37.1686H162.31L153.519 26.2204V37.1686H146.113V0.662109ZM108.357 27.7197V21.5479C107.284 19.7348 105.069 18.3403 102.577 18.3403C99.1506 18.3403 96.3825 21.1296 96.3825 24.5815C96.3825 28.0335 99.1506 30.8228 102.577 30.8228C105.069 30.8228 107.284 29.4977 108.357 27.7194V27.7197ZM108.357 12.0293H115.763V37.134H108.357V34.1705C107.145 36.2276 104.134 37.6573 100.985 37.6573C94.4787 37.6573 89.357 31.7996 89.357 24.547C89.357 17.2944 94.4787 11.5064 100.985 11.5064C104.134 11.5064 107.145 12.9361 108.357 14.9932V12.0287V12.0293Z" fill="black"/>
<path d="M9.17116 27.6844C9.17116 30.2297 7.12933 32.2872 4.60275 32.2872C4.00267 32.2878 3.40837 32.1691 2.85386 31.938C2.29936 31.7069 1.79553 31.3679 1.37123 30.9403C0.946925 30.5128 0.610472 30.0052 0.381128 29.4465C0.151784 28.8878 0.0340517 28.289 0.0346704 27.6844C0.0346704 25.1392 2.0765 23.082 4.60275 23.082H9.17116V27.6844ZM11.4552 27.6844C11.4552 25.1392 13.497 23.082 16.0233 23.082C18.5495 23.082 20.5917 25.1392 20.5917 27.6844V39.1908C20.5917 41.736 18.5499 43.7935 16.0233 43.7935C15.4232 43.7941 14.829 43.6754 14.2745 43.4442C13.72 43.2131 13.2162 42.8741 12.792 42.4466C12.3677 42.019 12.0313 41.5114 11.802 40.9527C11.5726 40.3941 11.4549 39.7953 11.4555 39.1908V27.6844H11.4552Z" fill="#E01E5A"/>
<path d="M16.0232 9.20514C15.4232 9.20567 14.8289 9.08698 14.2744 8.85585C13.72 8.62472 13.2162 8.2857 12.7919 7.85818C12.3676 7.43066 12.0312 6.92304 11.8019 6.36437C11.5726 5.80571 11.4549 5.20696 11.4555 4.6024C11.4551 2.05717 13.497 0 16.0232 0C18.5495 0 20.5916 2.05717 20.5916 4.6024V9.20514H16.0232ZM16.0232 11.5412C18.5495 11.5412 20.5916 13.5984 20.5916 16.1436C20.5916 18.6888 18.5498 20.7463 16.0232 20.7463H4.56808C3.968 20.7469 3.3737 20.6283 2.8192 20.3971C2.26469 20.166 1.76087 19.827 1.33656 19.3995C0.912257 18.972 0.575804 18.4643 0.34646 17.9057C0.117116 17.347 -0.000616259 16.7482 2.42578e-06 16.1436C2.42578e-06 13.5984 2.04183 11.5415 4.56808 11.5415H16.0235L16.0232 11.5412Z" fill="#36C5F0"/>
<path d="M34.3307 16.1436C34.3307 13.5984 36.3725 11.5412 38.8988 11.5412C41.425 11.5412 43.4672 13.5984 43.4672 16.1436C43.4672 18.6888 41.4254 20.7463 38.8988 20.7463H34.3307V16.1436ZM32.0463 16.1436C32.0463 18.6888 30.0048 20.7463 27.4782 20.7463C26.8782 20.7469 26.2839 20.6283 25.7294 20.3971C25.1748 20.166 24.671 19.827 24.2467 19.3995C23.8224 18.972 23.486 18.4643 23.2566 17.9057C23.0273 17.347 22.9095 16.7482 22.9102 16.1436V4.6024C22.9102 2.05717 24.952 0 27.4782 0C30.0045 0 32.0466 2.05717 32.0466 4.6024V16.1439L32.0463 16.1436Z" fill="#2EB67D"/>
<path d="M27.4782 34.5884C30.0045 34.5884 32.0466 36.6455 32.0466 39.1908C32.0466 41.736 30.0048 43.7935 27.4782 43.7935C26.8782 43.7941 26.2839 43.6754 25.7294 43.4443C25.1748 43.2132 24.671 42.8742 24.2467 42.4467C23.8224 42.0191 23.486 41.5115 23.2566 40.9528C23.0273 40.3941 22.9095 39.7954 22.9102 39.1908V34.5884H27.4782ZM27.4782 32.2868C26.8782 32.2874 26.2839 32.1688 25.7294 31.9377C25.1749 31.7066 24.6711 31.3676 24.2468 30.9401C23.8225 30.5126 23.4861 30.005 23.2567 29.4464C23.0274 28.8877 22.9096 28.289 22.9102 27.6844C22.9102 25.1392 24.952 23.082 27.4782 23.082H38.9337C41.46 23.082 43.5018 25.1392 43.5018 27.6844C43.5018 30.2297 41.46 32.2872 38.9334 32.2872H27.4782V32.2868Z" fill="#ECB22E"/>
</g>
<defs>
<clipPath id="clip0">
<rect width="172" height="44" fill="white"/>
</clipPath>
</defs>
</svg>

<svg xmlns="http://www.w3.org/2000/svg" width="172" height="44" fill="none" xmlns:v="https://vecta.io/nano"><g clip-path="url(#A)"><path d="M54.957 34.484l2.146-5.021c2.319 1.743 5.398 2.65 8.444 2.65 2.249 0 3.668-.872 3.668-2.197-.035-3.696-13.462-.802-13.566-10.077-.035-4.707 4.119-8.333 10.002-8.333 3.495 0 6.991.871 9.483 2.859l-2.007 5.126c-2.284-1.465-5.122-2.51-7.821-2.51-1.834 0-3.045.872-3.045 1.987.035 3.626 13.566 1.639 13.705 10.495 0 4.812-4.049 8.194-9.863 8.194-4.257 0-8.168-1.011-11.144-3.173zm82.332-6.834l5.917 3.313c-2.214 4.01-6.436 6.695-11.316 6.695-7.164 0-12.978-5.858-12.978-13.075s5.814-13.075 12.978-13.075c4.845 0 9.102 2.72 11.316 6.695l-5.917 3.312c-1.073-1.883-3.081-3.173-5.399-3.173-3.426 0-6.195 2.789-6.195 6.241s2.769 6.241 6.195 6.241c2.318 0 4.326-1.29 5.398-3.173h.001zM78.94.662h7.406v36.506H78.94V.662zm67.173 0h7.406v21.444l8.375-10.077h9.068l-10.348 12.134 11.178 13.006h-9.482l-8.791-10.948v10.948h-7.406V.662zM108.357 27.72v-6.172c-1.073-1.813-3.288-3.208-5.78-3.208-3.426 0-6.195 2.789-6.195 6.241s2.768 6.241 6.195 6.241c2.492 0 4.707-1.325 5.78-3.103h0zm0-15.69h7.406v25.105h-7.406v-2.964c-1.212 2.057-4.223 3.487-7.372 3.487-6.506 0-11.628-5.858-11.628-13.11s5.122-13.041 11.628-13.041c3.149 0 6.16 1.43 7.372 3.487v-2.964h0z" fill="#000"/><path d="M9.171 27.684c0 2.545-2.042 4.603-4.568 4.603-.6.001-1.194-.118-1.749-.349a4.56 4.56 0 0 1-1.483-.998 4.6 4.6 0 0 1-.99-1.494 4.63 4.63 0 0 1-.346-1.762c0-2.545 2.042-4.602 4.568-4.602h4.568v4.602zm2.284 0c0-2.545 2.042-4.602 4.568-4.602s4.568 2.057 4.568 4.602v11.506c0 2.545-2.042 4.603-4.568 4.603a4.53 4.53 0 0 1-1.749-.349 4.56 4.56 0 0 1-1.482-.998 4.6 4.6 0 0 1-.99-1.494c-.229-.559-.347-1.157-.346-1.762V27.684h0z" fill="#e01e5a"/><path d="M16.023 9.205c-.6.001-1.194-.118-1.749-.349s-1.058-.57-1.482-.998a4.6 4.6 0 0 1-.99-1.494 4.63 4.63 0 0 1-.346-1.762C11.455 2.057 13.497 0 16.023 0s4.568 2.057 4.568 4.602v4.603h-4.568zm0 2.336c2.526 0 4.568 2.057 4.568 4.602s-2.042 4.603-4.568 4.603H4.568a4.53 4.53 0 0 1-1.749-.349 4.56 4.56 0 0 1-1.483-.998 4.6 4.6 0 0 1-.99-1.494A4.63 4.63 0 0 1 0 16.144c0-2.545 2.042-4.602 4.568-4.602h11.455 0z" fill="#36c5f0"/><path d="M34.331 16.144c0-2.545 2.042-4.602 4.568-4.602s4.568 2.057 4.568 4.602-2.042 4.603-4.568 4.603h-4.568v-4.603zm-2.284 0c0 2.545-2.042 4.603-4.568 4.603a4.53 4.53 0 0 1-1.749-.349 4.56 4.56 0 0 1-1.483-.998 4.6 4.6 0 0 1-.99-1.494 4.63 4.63 0 0 1-.346-1.762V4.602C22.91 2.057 24.952 0 27.478 0s4.568 2.057 4.568 4.602v11.542h0z" fill="#2eb67d"/><path d="M27.478 34.588c2.526 0 4.568 2.057 4.568 4.602s-2.042 4.603-4.568 4.603c-.6.001-1.194-.118-1.749-.349a4.56 4.56 0 0 1-1.483-.998 4.6 4.6 0 0 1-.99-1.494c-.229-.559-.347-1.157-.346-1.762v-4.602h4.568zm0-2.302c-.6.001-1.194-.118-1.749-.349a4.56 4.56 0 0 1-1.483-.998 4.6 4.6 0 0 1-.99-1.494 4.63 4.63 0 0 1-.346-1.762c0-2.545 2.042-4.602 4.568-4.602h11.456c2.526 0 4.568 2.057 4.568 4.602s-2.042 4.603-4.568 4.603H27.478h0z" fill="#ecb22e"/></g><defs><clipPath id="A"><path fill="#fff" d="M0 0h172v44H0z"/></clipPath></defs></svg>
